front/assets/images/illustration-filtre-besoins-securiser.svg

<svg width="46" height="48" viewBox="0 0 46 48" fill="none" xmlns="http://www.w3.org/2000/svg">
    <g clip-path="url(#clip0_81_146158)">
        <path d="M13.098 10.8783C13.098 10.5483 12.828 10.2783 12.498 10.2783H9H8.868C7.272 10.3443 6 11.6643 6 13.2783V33.8103C6.072 35.4063 7.386 36.6783 9 36.6783H12.672C12.972 36.6423 13.2 36.3843 13.2 36.0783C13.2 35.7483 12.93 35.4783 12.6 35.4783H8.892C7.95 35.4183 7.2 34.6383 7.2 33.6783V13.1643C7.26 12.2223 8.04 11.4723 9 11.4723H12.498H12.57C12.87 11.4363 13.098 11.1843 13.098 10.8783Z" fill="#0D0C21"/>
        <path fill-rule="evenodd" clip-rule="evenodd" d="M39.6 13.1405C39.534 11.5445 38.214 10.2725 36.6 10.2725H34.128C33.828 10.3085 33.6 10.5665 33.6 10.8725C33.6 11.2025 33.87 11.4725 34.2 11.4725H36.708C37.65 11.5325 38.4 12.3125 38.4 13.2725V33.7805C38.34 34.7225 37.56 35.4725 36.6 35.4725H17.328C17.028 35.5085 16.8 35.7665 16.8 36.0725C16.8 36.4025 17.07 36.6725 17.4 36.6725H20.388C20.304 39.1625 19.668 40.2725 18.6 40.2725H17.328C17.028 40.3085 16.8 40.5665 16.8 40.8725C16.8 41.2025 17.07 41.4725 17.4 41.4725H28.272C28.572 41.4365 28.8 41.1785 28.8 40.8725C28.8 40.5425 28.53 40.2725 28.2 40.2725H27C25.926 40.2725 25.296 39.1625 25.212 36.6725H36.732C38.328 36.6005 39.6 35.2865 39.6 33.6725V13.1405ZM21.588 36.6665H24.006C24.06 38.2445 24.336 39.4565 24.84 40.2665H20.748C21.258 39.4565 21.528 38.2445 21.582 36.6665H21.588Z" fill="#0D0C21"/>
        <path d="M35.4001 30.666C35.7301 30.666 36.0001 30.936 36.0001 31.266C36.0001 31.572 35.7661 31.83 35.4721 31.86H35.4001H10.2001C9.8701 31.86 9.6001 31.59 9.6001 31.26C9.6001 30.954 9.8341 30.696 10.1281 30.666H10.2001H35.4001Z" fill="#0D0C21"/>
        <path d="M24.0001 33.6664C24.0001 33.3364 23.7301 33.0664 23.4001 33.0664H22.1281C21.8281 33.1024 21.6001 33.3604 21.6001 33.6664C21.6001 33.9964 21.8701 34.2664 22.2001 34.2664H23.4721C23.7721 34.2304 24.0001 33.9724 24.0001 33.6664Z" fill="#0D0C21"/>
        <path d="M23.1961 25.2239C23.9641 25.2239 24.5881 24.5999 24.5881 23.8319V22.4519C25.3201 21.9779 25.7701 21.1619 25.7701 20.2859C25.7701 18.8699 24.6181 17.7119 23.1961 17.7119C21.7741 17.7119 20.6221 18.8639 20.6221 20.2859C20.6221 21.1619 21.0721 21.9779 21.8041 22.4519V23.8319C21.8041 24.5999 22.4281 25.2239 23.1961 25.2239ZM23.3761 23.8319C23.3761 23.9339 23.2921 24.0119 23.1721 24.0119C23.0821 23.9999 23.0101 23.9219 23.0101 23.8319V22.8599H23.3761V23.8319ZM23.1961 18.9239C23.9461 18.9239 24.5581 19.5359 24.5581 20.2859C24.5581 21.0359 23.9461 21.6479 23.1961 21.6479C22.4461 21.6479 21.8341 21.0359 21.8341 20.2859C21.8341 19.5359 22.4461 18.9239 23.1961 18.9239Z" fill="#FED980"/>
        <path d="M31.254 24.69C31.29 24.996 31.548 25.224 31.854 25.224C32.184 25.224 32.46 24.954 32.46 24.618V16.452C32.418 15.462 31.734 14.676 30.87 14.58C30.876 14.514 30.882 14.454 30.882 14.388V13.602C30.882 12.834 30.258 12.21 29.49 12.21H28.05V11.574C28.05 9.07202 25.98 7.32002 23.01 7.32002C20.232 7.32002 18.576 8.61602 18.576 10.788C18.576 11.106 18.834 11.364 19.152 11.364C19.47 11.364 19.728 11.106 19.728 10.788C19.728 9.08402 21.42 8.47802 23.004 8.47802C25.284 8.47802 26.844 9.69002 26.886 11.496V12.366C26.436 12.594 26.124 13.062 26.124 13.602V14.388C26.124 14.448 26.124 14.514 26.136 14.574H20.232C20.238 14.514 20.244 14.454 20.244 14.388V13.602C20.244 12.834 19.62 12.21 18.852 12.21H17.49V12.18V10.806C17.556 8.13002 19.842 6.33002 23.184 6.33002C26.526 6.33002 28.878 8.21402 28.878 10.92C28.878 11.25 29.148 11.526 29.484 11.526C29.82 11.526 30.09 11.256 30.09 10.92C30.09 7.50602 27.252 5.12402 23.19 5.12402C19.128 5.12402 16.29 7.50602 16.29 10.92V12.348C15.816 12.576 15.504 13.062 15.504 13.602V14.388C15.504 14.448 15.504 14.514 15.516 14.574H14.82C13.878 14.628 13.146 15.498 13.146 16.554V26.496C13.194 27.552 13.968 28.38 14.916 28.38H31.662C31.992 28.38 32.268 28.11 32.268 27.774C32.268 27.438 31.998 27.168 31.662 27.168H17.898V24.624C17.898 23.886 17.322 23.28 16.584 23.238H14.358V21.294H16.914H16.974C17.28 21.258 17.508 21 17.508 20.694C17.508 20.364 17.238 20.088 16.902 20.088H14.358V16.494C14.382 16.104 14.634 15.786 14.916 15.786H30.684H30.726C30.978 15.81 31.254 16.11 31.254 16.554V24.696V24.69ZM16.5 24.432C16.596 24.432 16.674 24.504 16.686 24.618V27.162H14.874C14.622 27.138 14.346 26.838 14.346 26.394V24.438H16.5V24.432ZM19.05 14.382C19.05 14.484 18.966 14.568 18.864 14.568H16.896C16.794 14.568 16.71 14.484 16.71 14.382V13.596C16.71 13.494 16.794 13.41 16.896 13.41H18.864C18.966 13.41 19.05 13.494 19.05 13.596V14.382ZM29.676 14.382C29.676 14.484 29.592 14.568 29.49 14.568H27.522C27.42 14.568 27.336 14.484 27.336 14.382V13.596C27.336 13.494 27.42 13.41 27.522 13.41H29.49C29.592 13.41 29.676 13.494 29.676 13.596V14.382Z" fill="#FED980"/>
    </g>
    <defs>
        <clipPath id="clip0_81_146158">
            <rect width="36" height="39.6" fill="white" transform="translate(4.80005 4.2002)"/>
        </clipPath>
    </defs>
</svg>

<svg xmlns="http://www.w3.org/2000/svg" width="46" height="48" fill="none"><g clip-path="url(#a)"><path fill="#0D0C21" d="M13.098 10.878c0-.33-.27-.6-.6-.6h-3.63a3 3 0 0 0-2.868 3V33.81a3.003 3.003 0 0 0 3 2.868h3.672a.603.603 0 0 0-.072-1.2H8.892a1.806 1.806 0 0 1-1.692-1.8V13.164c.06-.942.84-1.692 1.8-1.692h3.57a.597.597 0 0 0 .528-.594"/><path fill="#0D0C21" fill-rule="evenodd" d="M39.6 13.14a3 3 0 0 0-3-2.867h-2.472a.603.603 0 0 0 .072 1.2h2.508c.942.06 1.692.84 1.692 1.8V33.78a1.806 1.806 0 0 1-1.8 1.691H17.328a.603.603 0 0 0 .072 1.2h2.988c-.084 2.49-.72 3.6-1.788 3.6h-1.272a.603.603 0 0 0 .072 1.2h10.872a.603.603 0 0 0-.072-1.2H27c-1.074 0-1.704-1.11-1.788-3.6h11.52a3.003 3.003 0 0 0 2.868-3zM21.588 36.668h2.418c.054 1.578.33 2.79.834 3.6h-4.092c.51-.81.78-2.023.834-3.6z" clip-rule="evenodd"/><path fill="#0D0C21" d="M35.4 30.666a.598.598 0 0 1 .072 1.194H10.2a.598.598 0 0 1-.072-1.194zm-11.4 3c0-.33-.27-.6-.6-.6h-1.272a.603.603 0 0 0 .072 1.2h1.272a.603.603 0 0 0 .528-.6"/><path fill="#FED980" d="M23.196 25.224c.768 0 1.392-.624 1.392-1.392v-1.38a2.59 2.59 0 0 0 1.182-2.166 2.573 2.573 0 1 0-3.966 2.166v1.38c0 .768.624 1.392 1.392 1.392m.18-1.392c0 .102-.084.18-.204.18a.186.186 0 0 1-.162-.18v-.972h.366zm-.18-4.908c.75 0 1.362.612 1.362 1.362s-.612 1.362-1.362 1.362-1.362-.612-1.362-1.362.612-1.362 1.362-1.362"/><path fill="#FED980" d="M31.254 24.69a.603.603 0 0 0 .6.534c.33 0 .606-.27.606-.606v-8.166c-.042-.99-.726-1.776-1.59-1.872.006-.066.012-.126.012-.192v-.786c0-.768-.624-1.392-1.392-1.392h-1.44v-.636c0-2.502-2.07-4.254-5.04-4.254-2.778 0-4.434 1.296-4.434 3.468a.576.576 0 0 0 1.152 0c0-1.704 1.692-2.31 3.276-2.31 2.28 0 3.84 1.212 3.882 3.018v.87c-.45.228-.762.696-.762 1.236v.786c0 .06 0 .126.012.186h-5.904q.01-.088.012-.186v-.786c0-.768-.624-1.392-1.392-1.392H17.49v-1.404c.066-2.676 2.352-4.476 5.694-4.476s5.694 1.884 5.694 4.59c0 .33.27.606.606.606s.606-.27.606-.606c0-3.414-2.838-5.796-6.9-5.796s-6.9 2.382-6.9 5.796v1.428a1.39 1.39 0 0 0-.786 1.254v.786c0 .06 0 .126.012.186h-.696c-.942.054-1.674.924-1.674 1.98v9.942c.048 1.056.822 1.884 1.77 1.884h16.746c.33 0 .606-.27.606-.606a.604.604 0 0 0-.606-.606H17.898v-2.544c0-.738-.576-1.344-1.314-1.386h-2.226v-1.944h2.616a.603.603 0 0 0 .534-.6c0-.33-.27-.606-.606-.606h-2.544v-3.594c.024-.39.276-.708.558-.708h15.81c.252.024.528.324.528.768v8.142zM16.5 24.432c.096 0 .174.072.186.186v2.544h-1.812c-.252-.024-.528-.324-.528-.768v-1.956H16.5zm2.55-10.05a.187.187 0 0 1-.186.186h-1.968a.187.187 0 0 1-.186-.186v-.786c0-.102.084-.186.186-.186h1.968c.102 0 .186.084.186.186zm10.626 0a.187.187 0 0 1-.186.186h-1.968a.187.187 0 0 1-.186-.186v-.786c0-.102.084-.186.186-.186h1.968c.102 0 .186.084.186.186z"/></g><defs><clipPath id="a"><path fill="#fff" d="M4.8 4.2h36v39.6h-36z"/></clipPath></defs></svg>
